!!!COM: Palestrina, Giovanni Perluigi da
!!!OPR: Missa De beata virgine (1567)
!!!OTL: Kyrie
**kern	**kern	**kern	**kern
*Ibass	*Itenor	*Icalto	*Icant
!Bassus	!Tenor	!Altus	!Cantus
*clefF4	*clefGv2	*clefG2	*clefG2
*k[b-]	*k[b-]	*k[b-]	*k[b-]
*?:X	*?:X	*?:X	*?:X
*M4/2	*M4/2	*M4/2	*M4/2
=1	=1	=1	=1
0r	0r	1r	1g
.	.	1g	1b-
=2	=2	=2	=2
0r	0r	2f	1cc
.	.	2e	.
.	.	4d	1dd
.	.	4e	.
.	.	4f	.
.	.	4g	.
=3	=3	=3	=3
0r	0r	2a	2cc
.	.	1g	2b-
.	.	.	1a
.	.	2f#	.
=4	=4	=4	=4
1r	1G	1.g	4g
.	.	.	4a
.	.	.	4b-
.	.	.	4cc
1G	1B-	.	1dd
.	.	2b-	.
=5	=5	=5	=5
2F	1c	2a	1r
2E	.	2g	.
4D	1d	2f	1ff
4E	.	.	.
4F	.	[2a	.
4G	.	.	.
=6	=6	=6	=6
2A	2c	2a]	2ee
2B-	2B-	2d	2.dd
1c	1A	2e	.
.	.	.	4cc
.	.	2f#	4cc
.	.	.	8b-
.	.	.	8a
=7	=7	=7	=7
1d	1G	1.g	1b-
1D	2r	.	[1a
.	[2d	2f	.
=8	=8	=8	=8
1F	2d]	2r	1a]
.	1c	1a	.
1G	.	.	2r
.	2B-	2g	[2dd
=9	=9	=9	=9
1A	1c	2f	2dd]
.	.	2.e	2cc
2G	1d	.	2b-
.	.	4d	.
2F	.	[2d	[2a
=10	=10	=10	=10
1E	1G	2d]	4a]
.	.	.	4g
.	.	2c#	1g
1D	1A	1d	.
.	.	.	2f#
=11	=11	=11	=11
0G	0G	0d	0g
=12	=12	=12	=12
1r	0d	2r	0r
.	.	2d	.
1D	.	2.f	.
.	.	4g	.
=13	=13	=13	=13
2F	1d	2a	0r
2G	.	2b-	.
2.A	1c	1cc	.
4B-	.	.	.
=14	=14	=14	=14
1c	1.e-	1g	1r
[1G	.	1b-	2r
.	2d	.	2g
=15	=15	=15	=15
1G]	1d	2g	2.b-
.	.	1b-	.
.	.	.	4cc
1r	1r	.	2dd
.	.	4a	2ee
.	.	4g	.
=16	=16	=16	=16
1r	0d	2a	1ff
.	.	2d	.
1D	.	2.f	1dd
.	.	4g	.
=17	=17	=17	=17
2F	1d	2a	0r
2G	.	2b-	.
2.A	1c	1cc	.
4B-	.	.	.
=18	=18	=18	=18
1c	1.e-	1g	1r
[1G	.	1b-	2r
.	2d	.	2g
=19	=19	=19	=19
1G]	1d	2g	2.b-
.	.	1b-	.
.	.	.	4cc
1r	2r	.	2dd
.	2c	4a	2ee
.	.	4g	.
=20	=20	=20	=20
0r	2d	2f	2ff
.	2B-	2.g	2dd
.	2c	.	2ee-
.	.	4a	.
.	2d	[2b-	2dd
=21	=21	=21	=21
0r	1e-	4b-]	1g
.	.	4a	.
.	.	1g	.
.	[1d	.	1a
.	.	2f#	.
=22	=22	=22	=22
1G	1d]	4g	1b-
.	.	4d	.
.	.	2.g	.
2A	1r	.	1a
.	.	4f	.
2F	.	[2f	.
=23	=23	=23	=23
1c	0r	2f]	2r
.	.	2e	2g
2A	.	2f	2a
[2B-	.	2d	2f
=24	=24	=24	=24
2B-]	2r	1c	2g
2A	2c	.	2a
1G	2d	2r	1b-
.	2B-	2g	.
=25	=25	=25	=25
1F	2c	2a	2.a
.	2d	2f	.
.	.	.	4b-
1C	1e-	2g	1cc
.	.	2a	.
=26	=26	=26	=26
1G	0d	2.b-	2r
.	.	.	2g
.	.	8a	.
.	.	8g	.
1D	.	2f	2a
.	.	2a	2f
=27	=27	=27	=27
2G	[0d	2b-	2g
2F#	.	2a	2a
1G	.	1g	1b-
=28	=28	=28	=28
0D	1d_	0f#	0a
.	1d_	.	.
=29	=29	=29	=29
1G	0d]	0r	0r
2B-	.	.	.
2B-	.	.	.
=30	=30	=30	=30
1A	1f	0r	0r
2G	1g	.	.
[2c	.	.	.
=31	=31	=31	=31
4c]	1g	0r	0r
4B-	.	.	.
4B-	.	.	.
8A	.	.	.
8G	.	.	.
1A	1f	.	.
=32	=32	=32	=32
0G	0g	2r	0dd
.	.	2g	.
.	.	2b-	.
.	.	2b-	.
=33	=33	=33	=33
0r	1d	1a	1ff
.	2r	2g	1gg
.	2c	[2cc	.
=34	=34	=34	=34
0r	2e-	4cc]	1gg
.	.	4b-	.
.	2e-	4b-	.
.	.	8a	.
.	.	8g	.
.	1d	1a	1ff
=35	=35	=35	=35
2r	2G	1g	1gg
2G	2.g	.	.
2B-	.	2r	1dd
.	4f	.	.
2B-	4f	[2d	.
.	8e	.	.
.	8d	.	.
=36	=36	=36	=36
1A	1e	2d]	0r
.	.	2c	.
2D	1d	1f	.
[2d	.	.	.
=37	=37	=37	=37
4d]	1A	2e	1r
4c	.	.	.
4c	.	1a	.
8B-	.	.	.
8A	.	.	.
1B-	1d	.	2r
.	.	2g	[2dd
=38	=38	=38	=38
2A	0r	2f	2dd]
2A	.	2e	2cc
2G	.	2g	2b-
2F	.	[2a	[2cc
=39	=39	=39	=39
1G	1r	4a]	2cc]
.	.	4g	.
.	.	1g	2b-
1D	2r	.	1a
.	[2d	4f	.
.	.	4e	.
=40	=40	=40	=40
0r	2d]	2f	1a
.	2c	2e	.
.	2B-	2d	[1g
.	[2c	[2e	.
=41	=41	=41	=41
2r	2c]	4e]	1g]
.	.	4c	.
1d	2B-	2d	.
.	1A	2.e	1a
2c	.	.	.
.	.	4f	.
=42	=42	=42	=42
2B-	2G	2g	1r
1c	2.g	2e	.
.	.	1g	2r
.	4f	.	.
2B-	2d	.	[2dd
=43	=43	=43	=43
2A	2.e	1a	2dd]
2A	.	.	2cc
.	4f	.	.
2G	2g	2r	2b-
[2F	2c	[2a	[2cc
=44	=44	=44	=44
2F]	1d	2a]	2cc]
2G	.	2g	2b-
2D	1r	2f	2a
2E-	.	[2g	2g
=45	=45	=45	=45
1D	2r	2g]	1a
.	1d	2f	.
1A	.	2.e	2.a
.	2c	.	.
.	.	4c	8g
.	.	.	8a
=46	=46	=46	=46
2G	2B-	4d	2b-
.	.	4e	.
2F	1c	2f	2.a
1G	.	[1d	.
.	.	.	4g
.	2B-	.	[2g
=47	=47	=47	=47
0D	0A	0d]	2g]
.	.	.	4f
.	.	.	4e
.	.	.	1f#
=48	=48	=48	=48
[0G	[0G	[0d	[0g
=49	=49	=49	=49
0G]	0G]	0d]	0g]
==	==	==	==
*-	*-	*-	*-
!!!CDT: 1525/^1526/-1594/2/2
!!!OCY: Italia
!!!AGN: Mass (Paraphrase)
!!!AST: renaissance, vocal
!!!ASW: Gregorian Mass
!!!PWK: Masses, Book 2
!!!RNB: Cadence finals: G,D,E,F,C
!!!YOR: Le Opere Complete, v. 4, p. 1
!!!YOO: Rome, Italy: Fratelli Scalera
!!!END: 1992//
!!!EED: John Miller
!!!YEC: Copyright 2000, John Miller
!!!YEN: United States of America
!!!YEM: Rights to all derivative electronic formats reserved.
!!!YEM: Refer to licensing agreement for further details.
!!!YEM: This file must be accompanied by the licensing agreement.
!!!YEM: A copy of the licensing agreement may be found at http://www.music-cog.ohio-state.edu/HumdrumDatabases/Palestrina/license.txt
!!!EMD: converted to Humdrum by Bret Aarden
